src/assets/case-studies/tropic/ask-ai/ai-icon-gen.svg

<svg width="16" height="16" viewBox="0 0 16 16" fill="none" xmlns="http://www.w3.org/2000/svg">
<path d="M13.98 4.13459L8.48 1.12521C8.33294 1.04435 8.16783 1.00195 8 1.00195C7.83217 1.00195 7.66706 1.04435 7.52 1.12521L2.02 4.13646C1.86293 4.2224 1.73181 4.34894 1.64034 4.50285C1.54888 4.65677 1.50041 4.83242 1.5 5.01146V10.989C1.50041 11.168 1.54888 11.3437 1.64034 11.4976C1.73181 11.6515 1.86293 11.778 2.02 11.864L7.52 14.8746C7.66695 14.9558 7.8321 14.9984 8 14.9984C8.16789 14.9984 8.33305 14.9558 8.48 14.8746L13.98 11.864C14.1371 11.778 14.2682 11.6515 14.3597 11.4976C14.4511 11.3437 14.4996 11.168 14.5 10.989V5.01146C14.4999 4.8321 14.4516 4.65606 14.3601 4.50178C14.2686 4.34751 14.1373 4.22068 13.98 4.13459ZM10.5 9.50021V12.6308L8.5 13.7258V8.29646L13.5 5.55896V7.55896L10.76 9.05896C10.6809 9.10224 10.615 9.16609 10.5692 9.24377C10.5234 9.32145 10.4995 9.41005 10.5 9.50021ZM5.24 9.06271L2.5 7.56271V5.56271L7.5 8.30021V13.7296L5.5 12.6308V9.50021C5.4998 9.41069 5.47556 9.32286 5.42983 9.24591C5.38409 9.16895 5.31853 9.10568 5.24 9.06271ZM5.19625 3.53709L7.75875 4.94021C7.83234 4.98047 7.91487 5.00158 7.99875 5.00158C8.08263 5.00158 8.16516 4.98047 8.23875 4.94021L10.8012 3.53709L12.9562 4.71646L8 7.43021L3.04125 4.71521L5.19625 3.53709ZM8 2.00021L9.7625 2.96521L8 3.93084L6.2375 2.96584L8 2.00021ZM2.5 8.70146L4.5 9.79646V12.0833L2.5 10.989V8.70146ZM11.5 12.0833V9.79646L13.5 8.70146V10.989L11.5 12.0833Z" fill="url(#paint0_linear_1012_49234)"/>
<defs>
<linearGradient id="paint0_linear_1012_49234" x1="1.5" y1="4" x2="15" y2="12" gradientUnits="userSpaceOnUse">
<stop stop-color="#EBE9FE"/>
<stop offset="0.502928" stop-color="#FBB1BC"/>
<stop offset="1" stop-color="#795CF6"/>
</linearGradient>
</defs>
</svg>

<svg width="16" height="16" fill="none" xmlns="http://www.w3.org/2000/svg"><path d="M13.98 4.135l-5.5-3.01a.996.996 0 0 0-.96 0l-5.5 3.011a1 1 0 0 0-.52.875v5.978a1 1 0 0 0 .52.875l5.5 3.01a.992.992 0 0 0 .96 0l5.5-3.01a1 1 0 0 0 .52-.875V5.011a1 1 0 0 0-.52-.876zM10.5 9.5v3.13l-2 1.096v-5.43l5-2.737v2l-2.74 1.5a.5.5 0 0 0-.26.441zm-5.26-.437l-2.74-1.5v-2l5 2.737v5.43l-2-1.1V9.5a.5.5 0 0 0-.26-.437zm-.044-5.526L7.76 4.94a.5.5 0 0 0 .48 0L10.8 3.537l2.155 1.18L8 7.43 3.041 4.715l2.155-1.178zM8 2l1.762.965L8 3.931l-1.763-.965L8 2zM2.5 8.701l2 1.095v2.287l-2-1.094V8.701zm9 3.382V9.796l2-1.095v2.288l-2 1.094z" fill="url(#paint0_linear_1012_49234)"/><defs><linearGradient id="paint0_linear_1012_49234" x1="1.5" y1="4" x2="15" y2="12" gradientUnits="userSpaceOnUse"><stop stop-color="#EBE9FE"/><stop offset=".503" stop-color="#FBB1BC"/><stop offset="1" stop-color="#795CF6"/></linearGradient></defs></svg>
